X:1
T:The Past Redemption Line
T:The Past Redemption Line
T:Jesse Randall Baxter, Jr.
T:Jesse Randall Baxter, Jr., 1923
T:Public Domain Courtesy of the Cyber Hymnal™
T:Public Domain Courtesy of the Cyber Hymnal™
C:Jesse Randall Baxter, Jr.
Z:Public Domain
Z:Courtesy of the Cyber Hymnal™
%%score ( 1 2 ) ( 3 4 )
L:1/8
Q:1/4=98
M:4/4
K:Ab
V:1 treble 
V:2 treble 
V:3 bass 
V:4 bass 
V:1
 [CE][CF] | [CA][CA][CA][DB] [Ec]2 [EB][EA] | [FA][FA][EG] x5 | [DF] [CE]2 [EA] [EB] x3 | %4
w: 1.~You are|drift- ing with the tide, On- ward|down the stream|you glide, Draw- ing|
w: 2.~You are|drift- ing from the shore, Fast- er|now than e’er|be- fore, O you|
w: 3.~You are|drift- ing far- ther on Where no|day will ev-|er dawn, And the|
 [Ec][Ec][Ec][Ed] [Ae]2 [Ac]2 | [GB]6 [Ge][Gd] | [Ac][Ac][Gc][GB] [FA]2 [=Ec][EB] | %7
w: near- er to the dan- ger|sign; Sad will|be your aw- ful fate When you|
w: need the Sav- ior’s love di-|vine; As you|reach the cur- rent swift, Fast- er|
w: light of hope will ne- ver|shine; To the|dark- ness of des- pair That a-|
 [FA][FA][=EA][EG] F2 [FA][DF] | [CE][EA][EG][EA] [Gc]2 [EGB]2 | [EA]6 ||"^Refrain" [Ec][Ed] x6 | %11
w: find, but then too late, You have|reached the “Past Re- demp- tion|Line.”||
w: still your boat will drift, Near- er|to the “Past Re- demp- tion|Line.”|O the|
w: waits you o- ver there, When you|cross the “Past Re- demp- tion|Line.”||
 [Ae][Ae][Ed][Ec] [Ae][Ac][EA][_Gc] | [FB]2 [DF]4 [EG][DF] | [CE][EA][EG][EA] [=Dc]2 [DB]2 | %14
w: |||
w: “Past Re- demp- tion Line” Is near to|some soul, Tell me,|bro- ther, is it yours or|
w: |||
 B6 [GB][Fc] | [Ed][Ed][Ed][=Dc] [EB]2 [Ee][E_d] | [Ec][Ec][Ec][=EB] [FA]2 [FA][DF] | %17
w: |||
w: mine? I- dle|not your time a- way, Come to|Je- sus while you may, Ere you|
w: |||
 [CE][EA][EG][EA] [Gc]2 [EGB]2 | [EA]6 |] %19
w: ||
w: cross the “Past Re- demp- tion|Line.”|
w: ||
V:2
 x2 | x8 | x8 | x8 | x8 | x8 | x8 | x4 F2 x2 | x8 | x6 || x8 | x8 | x8 | x8 | (E2 =D2 _D2) x2 | %15
 x8 | x8 | x8 | x6 |] %19
V:3
 [A,,A,][A,,F,] | [A,,E,][A,,E,][A,,E,][A,,E,] [A,,A,]2 [B,,G,][C,A,] | %2
w: ||
 [D,A,][D,A,][D,A,][D,A,] [A,,A,]2 [C,A,][E,G,] | A,A,A,[A,B,] [A,C]2 [A,E]2 | [E,E]6 [E,E][E,E] | %5
w: |is it mine? * * *||
 [A,E][A,E][E,E][E,D] [F,C]2 [C,C][C,C] | [F,C][F,C][C,C][C,B,] [D,A,]2 [D,A,][D,A,] | %7
w: ||
 [E,A,][E,C][E,B,][E,C] [E,E]2 [E,D]2 | [A,,C]6 x2 | A,[A,B,] x4 || %10
w: |||
 [A,C][A,C][A,B,]A, [A,C][E,A,][C,C][A,,C] | [D,B,]2 [D,A,]4 [D,A,][D,A,] | %12
w: ||
 [A,,A,][A,,C][D,B,][C,A,] [B,,F,]2 [B,,A,]2 | [E,G,]2 [F,A,]2 [E,G,]2 [E,B,][E,A,] | %14
w: ||
 [E,G,][E,G,][E,G,][F,A,] [G,B,]2 [E,C][E,B,] | A,A,A,[G,B,] [F,C]2 [D,D][D,A,] | %16
w: ||
 [E,A,][E,C][E,B,][E,C] [E,E]2 [E,D]2 | [A,,C]6 x2 | x6 |] %19
w: |||
V:4
 x2 | x8 | x8 | A,A,A, x5 | x8 | x8 | x8 | x8 | x8 | A, x5 || x3 A, x4 | x8 | x8 | x8 | x8 | %15
 A,A,A, x5 | x8 | x8 | x6 |] %19

